images/Ecosystem/bitpay.svg

<?xml version="1.0" encoding="UTF-8"?>
<svg width="1200px" height="1200px" viewBox="0 0 1200 1200" version="1.1" xmlns="http://www.w3.org/2000/svg" xmlns:xlink="http://www.w3.org/1999/xlink">
    <!-- Generator: Sketch 64 (93537) - https://sketch.com -->
    <title>Logo/Large/bitpay-mark-round</title>
    <desc>Created with Sketch.</desc>
    <defs>
        <linearGradient x1="50%" y1="0%" x2="50%" y2="100%" id="linearGradient-1">
            <stop stop-color="#091C57" offset="0%"></stop>
            <stop stop-color="#142F94" offset="100%"></stop>
        </linearGradient>
        <ellipse id="path-2" cx="600" cy="599.933452" rx="600" ry="599.933452"></ellipse>
    </defs>
    <g id="Logo/Large/bitpay-mark-round" stroke="none" stroke-width="1" fill="none" fill-rule="evenodd">
        <g id="BitPay-Logo" transform="translate(0.000000, 2.000000)">
            <g id="Icon" transform="translate(0.000000, 0.613043)">
                <mask id="mask-3" fill="white">
                    <use xlink:href="#path-2"></use>
                </mask>
                <use id="Oval-4" fill="url(#linearGradient-1)" xlink:href="#path-2"></use>
                <path d="M556.178527,841.694737 C577.421026,841.694737 597.124213,837.161656 615.311771,825.830133 C633.52301,816.00885 650.194938,802.411966 663.835606,785.037122 C677.476274,768.417397 688.109364,748.777192 695.687513,727.626746 C703.265662,705.71882 707.054737,683.810894 707.054737,660.395088 C707.054737,631.68872 702.507847,609.780794 692.656254,593.16107 C682.780978,576.541345 663.077791,569.745263 637.312085,569.745263 C628.976121,569.745263 620.616475,570.498024 606.975807,573.520864 C593.335139,576.541345 581.967915,583.342147 570.600692,592.405949 L512.225263,838.671896 C530.412821,841.694737 549.358193,841.694737 556.178527,841.694737 Z M673.770204,457.001153 C702.536093,457.001153 727.496469,462.294726 748.698607,472.879511 C769.877109,482.710771 786.51736,496.321467 800.888486,514.46985 C814.526873,531.864707 824.359749,552.280751 831.167124,575.720345 C837.9745,599.164663 841,624.118394 841,651.339786 C841,692.930125 833.43625,731.496914 817.552373,768.549566 C801.644861,804.846331 781.222734,838.117184 754.749608,864.585052 C728.252844,891.806444 697.241467,913.736626 660.911828,928.859097 C624.605826,944.739817 586.007062,952.301053 544.382797,952.301053 C539.088172,952.301053 529.255296,952.301053 515.640545,951.545165 C502.002158,951.545165 486.118282,950.033391 469.478031,947.765729 C452.081404,944.739817 433.148392,941.716268 414.239015,937.178582 C394.573264,932.640896 376.396626,925.835547 359,917.518425 L514.88417,264.930181 L654.104453,243 L598.865437,474.391286 C610.967438,469.100074 622.336701,464.562388 634.438701,462.292364 C647.297077,458.512927 660.155453,457.001153 673.770204,457.001153 L673.770204,457.001153 Z" id="Fill-91" fill="#FFFFFE" mask="url(#mask-3)"></path>
            </g>
        </g>
    </g>
</svg>

<svg xmlns="http://www.w3.org/2000/svg" width="1200" height="1200" xmlns:v="https://vecta.io/nano"><defs><linearGradient x1="50%" y1="0%" x2="50%" y2="100%" id="A"><stop stop-color="#091c57" offset="0%"/><stop stop-color="#142f94" offset="100%"/></linearGradient><ellipse id="B" cx="600" cy="599.933" rx="600" ry="599.933"/></defs><g transform="translate(0 2.613)" fill-rule="evenodd"><mask id="C" fill="#fff"><use href="#B"/></mask><use fill="url(#A)" href="#B"/><path d="M556.179 841.695c21.242 0 40.946-4.533 59.133-15.865 18.211-9.821 34.883-23.418 48.524-40.793 13.641-16.62 24.274-36.26 31.852-57.41 7.578-21.908 11.367-43.816 11.367-67.232 0-28.706-4.547-50.614-14.398-67.234-9.875-16.62-29.578-23.416-55.344-23.416-8.336 0-16.696.753-30.336 3.776s-25.008 9.821-36.375 18.885l-58.375 246.266c18.188 3.023 37.133 3.023 43.953 3.023zM673.77 457.001c28.766 0 53.726 5.294 74.928 15.878 21.179 9.831 37.819 23.442 52.19 41.59 13.638 17.395 23.471 37.811 30.279 61.25S841 624.118 841 651.34c0 41.59-7.564 80.157-23.448 117.21-15.908 36.297-36.33 69.568-62.803 96.035-26.497 27.221-57.508 49.152-93.838 64.274-36.306 15.881-74.905 23.442-116.529 23.442-5.295 0-15.128 0-28.742-.756-13.638 0-29.522-1.512-46.163-3.779-17.397-3.026-36.33-6.049-55.239-10.587-19.666-4.538-37.842-11.343-55.239-19.66L514.884 264.93 654.104 243l-55.239 231.391c12.102-5.291 23.471-9.829 35.573-12.099 12.858-3.779 25.717-5.291 39.332-5.291h0z" fill="#fffffe" mask="url(#C)"/></g></svg>
